X:1811
T:Enora's valse (Pascal Hérvé)
O:england
C:R. Robert: Tablatures
M:3/4
L:1/8
K:C
c6-|c2e3c|B6-|B2d3B|A6-|A2B3A|G6-|G2 c3c|
c6-|c2e3c|B6-|B2d3B|A6-|A2F2 EF|E2D4-|D2C2D2|
E6-|E2GE DC|D6-|DC A,C DE|D2C4-|CA, CD EC|D6-|DG, B,C DC|
E6-|E2GE DC|D6-|DC A,C DE|D2CA, CD| ED CA, CD| C6|B,B, CD EG:|
E6|D2C3B,|C2 A,4-|A,2 CD EF|EC G4|E2 D3C|D6-|DC DE (3FED|
E6|D2C3B,|C2 A,4-|A,2 CD EF|EC G3E|D4-DC|C6-|CB, CD EG|]


